images/aman.svg

<svg fill="none" height="28" viewBox="0 0 101 28" width="101" xmlns="http://www.w3.org/2000/svg"><path clip-rule="evenodd" d="m99.9972 15.4417v11.7863h-.1972c-5.495-6.8839-12.2661-15.567-13.4122-17.2099h-.0519v8.0831c0 7.5098.1714 8.7356.3382 8.7356v.1045h-2.2101v-.1045c.1756 0 .5023-1.2258.5023-8.7356v-11.83795h.1979c5.4955 6.88395 12.2665 15.56705 13.4126 17.20985h.0519v-8.0314c0-7.50977-.1627-8.73515-.3393-8.73515v-.10408h2.2106v.10408c-.176 0-.5027 1.22538-.5027 8.73515zm-27.0013 11.4993v-.1042c.2658-.1254-.0627-1.1995-2.2498-6.7521 0 0-3.5936-9.4113-3.9061-10.40208h-.0244c-.3382.99078-4.1143 10.40208-4.1143 10.40208-2.2392 5.5526-2.6456 6.613-2.3696 6.7521v.1042h-2.2323v-.1042c.5525 0 8.6494-20.56941 8.6494-20.56941h.2644s7.7314 20.56941 8.2835 20.56941v.1042zm-26.2718 0v-.1042c.5396 0-1.0936-14.521-1.1714-16.1896h-.052c-.7811 2.0857-1.9014 4.4839-3.3074 7.43-.9894 2.0595-2.3433 5.2665-4.0618 8.8638h-.4687c-1.7184-3.5973-3.0723-6.8043-4.0617-8.8638-1.4061-2.9461-2.5263-5.3443-3.3074-7.43h-.0516c-.0784 1.6686-1.7115 16.1896-1.1714 16.1896v.1042h-2.207v-.1042c.7258 0 2.5821-20.56941 2.5821-20.56941h.1972c7.395 15.38181 7.5249 16.34631 8.2282 17.93621h.0519c.7032-1.5899.8331-2.5544 8.2282-17.93621h.1972s1.8562 20.56941 2.582 20.56941v.1042zm-31.3276 0v-.1042c.2651-.1254-.0631-1.1995-2.2503-6.7521 0 0-3.59311-9.4113-3.90603-10.40208h-.0244c-.33859.99078-4.11431 10.40208-4.11431 10.40208-2.23918 5.5526-2.64611 6.613-2.36959 6.7521v.1042h-2.23187v-.1042c.5521 0 8.64853-20.56941 8.64853-20.56941h.26439s7.73188 20.56941 8.28398 20.56941v.1042zm-9.23148-26.441h6.22308v1.36042h-6.22308z" fill="#fff" fill-rule="evenodd"/></svg>

<svg width="101" height="28" viewBox="0 0 101 28" fill="none" xmlns="http://www.w3.org/2000/svg">
<path fill-rule="evenodd" clip-rule="evenodd" d="M99.9972 15.4417V27.228H99.8C94.305 20.3441 87.5339 11.661 86.3878 10.0181H86.3359V18.1012C86.3359 25.611 86.5073 26.8368 86.6741 26.8368V26.9413H84.464V26.8368C84.6396 26.8368 84.9663 25.611 84.9663 18.1012V6.26325H85.1642C90.6597 13.1472 97.4307 21.8303 98.5768 23.4731H98.6287V15.4417C98.6287 7.93193 98.466 6.70655 98.2894 6.70655V6.60247H100.5V6.70655C100.324 6.70655 99.9973 7.93193 99.9973 15.4417H99.9972ZM72.9959 26.941V26.8368C73.2617 26.7114 72.9332 25.6373 70.7461 20.0847C70.7461 20.0847 67.1525 10.6734 66.84 9.68262H66.8156C66.4774 10.6734 62.7013 20.0847 62.7013 20.0847C60.4621 25.6373 60.0557 26.6977 60.3317 26.8368V26.941H58.0994V26.8368C58.6519 26.8368 66.7488 6.26739 66.7488 6.26739H67.0132C67.0132 6.26739 74.7446 26.8368 75.2967 26.8368V26.941H72.9959ZM46.7241 26.941V26.8368C47.2637 26.8368 45.6305 12.3158 45.5527 10.6472H45.5007C44.7196 12.7329 43.5993 15.1311 42.1933 18.0772C41.2039 20.1367 39.85 23.3437 38.1315 26.941H37.6628C35.9444 23.3437 34.5905 20.1367 33.6011 18.0772C32.195 15.1311 31.0748 12.7329 30.2937 10.6472H30.2421C30.1637 12.3158 28.5306 26.8368 29.0707 26.8368V26.941H26.8637V26.8368C27.5895 26.8368 29.4458 6.26739 29.4458 6.26739H29.643C37.038 21.6492 37.1679 22.6137 37.8712 24.2036H37.9231C38.6263 22.6137 38.7562 21.6492 46.1513 6.26739H46.3485C46.3485 6.26739 48.2047 26.8368 48.9305 26.8368V26.941H46.7241ZM15.3965 26.941V26.8368C15.6616 26.7114 15.3334 25.6373 13.1462 20.0847C13.1462 20.0847 9.55309 10.6734 9.24017 9.68262H9.21577C8.87718 10.6734 5.10146 20.0847 5.10146 20.0847C2.86228 25.6373 2.45535 26.6977 2.73187 26.8368V26.941H0.5V26.8368C1.0521 26.8368 9.14853 6.26739 9.14853 6.26739H9.41292C9.41292 6.26739 17.1448 26.8368 17.6969 26.8368V26.941H15.3965ZM6.16502 0.5H12.3881V1.86042H6.16502V0.5Z" fill="white"/>
</svg>
